X: 1321
T: Lough Allen
R:Reel
N:Collected by F. O'Neill
B:O'Neill's 1321
Z:Transcribed by Trish O'Neil
M:C|
L:1/8
K:A
(cd)|eAcA BGEd|eAcAd2(cd)|eAcA BGEG|AcBGA2(cd)|
eAcA BGEd|eAcAd2(cB)|AcBd cefa|gedBA2
|:(BA)|Beef gedB|agaba2(ba)|gaba gedB|AcBGA2 :|


